rospo-dark/16x16/panel/google-chrome-no-notification-disabled.svg

<svg height="22" width="22" xmlns="http://www.w3.org/2000/svg"><path d="m11 3a8 8 0 0 0 -5.6035 2.293l2.7558 4.773a3 3 0 0 1 2.8477-2.066h7.412a8 8 0 0 0 -7.412-5zm-6.3008 3.0859a8 8 0 0 0 -1.6992 4.9141 8 8 0 0 0 5.8652 7.701l2.7518-4.767a3 3 0 0 1 -.617.066 3 3 0 0 1 -2.5938-1.502l-.0039.002zm6.3008 2.9141a2 2 0 0 0 -2 2 2 2 0 0 0 2 2 2 2 0 0 0 2-2 2 2 0 0 0 -2-2zm2.23 0a3 3 0 0 1  .77 2 3 3 0 0 1 -.404 1.498l.002.002-3.7035 6.414a8 8 0 0 0 1.1055.086 8 8 0 0 0 8-8 8 8 0 0 0 -.26-2z" fill="#d3dae3" opacity=".3"/></svg>

<svg xmlns="http://www.w3.org/2000/svg" width="22" height="22" version="1.1">
 <defs>
  <style id="current-color-scheme" type="text/css">
   .ColorScheme-Text { color:#d3dae3; } .ColorScheme-Highlight { color:#5294e2; }
  </style>
 </defs>
 <g>
  <path style="opacity:0.3;fill:currentColor" class="ColorScheme-Text" d="M 11,3 A 8,8 0 0 0 5.3965,5.293 l 2.7558,4.773 A 3,3 0 0 1 11,8 l 7.412,0 A 8,8 0 0 0 11,3 Z M 4.6992,6.0859 A 8,8 0 0 0 3,11 8,8 0 0 0 8.8652,18.701 L 11.617,13.934 A 3,3 0 0 1 11,14 3,3 0 0 1 8.4062,12.498 L 8.4023,12.5 4.6992,6.0859 Z M 11,9 a 2,2 0 0 0 -2,2 2,2 0 0 0 2,2 2,2 0 0 0 2,-2 2,2 0 0 0 -2,-2 z m 2.23,0 A 3,3 0 0 1 14,11 3,3 0 0 1 13.596,12.498 L 13.598,12.5 9.8945,18.914 A 8,8 0 0 0 11,19 8,8 0 0 0 19,11 8,8 0 0 0 18.74,9 l -5.51,0 z"/>
 </g>
</svg>
